src/icons/0094_people_a.svg

<svg data-name="Layer 1" xmlns="http://www.w3.org/2000/svg" viewBox="0 0 48 48"><path d="M15 0a8.7 8.7 0 11-8.7 8.7A8.71 8.71 0 0115 0zm18 11a8.7 8.7 0 11-8.7 8.7A8.71 8.71 0 0133 11zm15 37v-4.4a12.93 12.93 0 00-12.9-12.9h-4.2A12.93 12.93 0 0018 43.6V48zM25.5 28.7a11.32 11.32 0 01-4.1-8.3 14.21 14.21 0 00-4.2-.7H13A13 13 0 000 32.6V37h16.4a15.52 15.52 0 019.1-8.3z"/></svg>

<svg id="Layer_1" data-name="Layer 1" xmlns="http://www.w3.org/2000/svg" viewBox="0 0 48 48"><title>0094_people_a</title><path d="M15,0A8.7,8.7,0,1,1,6.3,8.7,8.71,8.71,0,0,1,15,0ZM33,11a8.7,8.7,0,1,1-8.7,8.7A8.71,8.71,0,0,1,33,11ZM48,48V43.6A12.93,12.93,0,0,0,35.1,30.7H30.9A12.93,12.93,0,0,0,18,43.6V48ZM25.5,28.7a11.32,11.32,0,0,1-4.1-8.3,14.21,14.21,0,0,0-4.2-.7H13A13,13,0,0,0,0,32.6V37H16.4A15.52,15.52,0,0,1,25.5,28.7Z"/></svg>
